**kern	**kern
*staff2	*staff1
*clefF4	*clefG2
*k[f#]	*k[f#]
*met(c|)	*met(c|)
*M2/2	*M2/2
*G:	*G:
=-	=-
8eL	8G#L 8B 8d
8e	8G# 8B 8d
8eJ	8G#J 8B 8d
=217	=217
16aLL	8A 8c
16b	.
16cc	8r
16ddJ	.
8eeJ	8r
*	*clefG2
=218	=218
8eeL 8eee	8g#L 8b 8dd
8ee 8eee	8g# 8b 8dd
8eeJ 8eee	8g#J 8b 8dd
=219	=219
16eeeLL	8a 8cc
16ddd	.
16ccc	8r
16bbJ	.
8aaJ	8r
*	*clefF4
=220	=220
8dL	8F#L 8A 8c
8d	8F# 8A 8c
8dJ	8F#J 8A 8c
=221	=221
16gnLL	8Gn 8B
16a	.
16b	8r
16ccJ	.
8ddJ	8r
*	*clefG2
=222	=222
8ddL 8ddd	8f#L 8a 8cc
8dd 8ddd	8f# 8a 8cc
8ddJ 8ddd	8f#J 8a 8cc
=223	=223
16dddLL	8g 8b
16ccc	.
16bb	8r
16aaJ	.
8ggJ	8r
*	*clefF4
=224	=224
*-	*-
